svg/emoji_u1f6eb.svg

<svg enable-background="new 0 0 128 128" viewBox="0 0 128 128" xmlns="http://www.w3.org/2000/svg"><rect x="4.02" y="96" width="119.98" height="20" fill="#616161"/><g fill="#E0E0E0"><rect x="10.35" y="103.89" width="11.82" height="4.22"/><rect x="34.17" y="103.89" width="11.82" height="4.22"/><rect x="57.99" y="103.89" width="11.82" height="4.22"/><rect x="81.81" y="103.89" width="11.82" height="4.22"/><rect x="105.63" y="103.89" width="11.82" height="4.22"/></g><path d="m60.16 54.03c-0.33-1.05-0.9-1.72-1.7-2.18-0.81-0.46-2.05-0.53-2.94-0.08l-3.92 2c-0.32 0.16-0.57 0.37-0.77 0.62l-2.6 1.4c-0.88 0.47-1.22 1.63-0.89 2.66s1.29 1.77 2.27 1.64l2.92-0.37c0.09-0.01 0.15-0.04 0.23-0.06 0.21 0.03 0.43 0.04 0.67 0.01l4.31-0.57c1.18-0.16 1.97-0.51 2.34-1.46 0.38-0.94 0.49-2.28 0.08-3.61z" fill="#BDBDBD"/><ellipse transform="matrix(.964 -.266 .266 .964 -12.537 17.329)" cx="57.7" cy="54.95" rx="1.85" ry="3.01" fill="#424242"/><ellipse transform="matrix(.0086095 -1 1 .0086095 56.995 136.85)" cx="97.52" cy="39.68" rx="2.46" ry="2.42" fill="#757575"/><path d="m15.81 54.1 12.64-7.59-11.59-8.86c-0.03-0.02-0.06-0.05-0.1-0.07-2.93-2.2-7.22-2.49-10.89-0.9l9.94 17.42z" fill="#039BE5"/><g opacity=".2"><path d="m10.7 37.66c1.85 0 3.58 0.53 4.87 1.51l0.08 0.06 9.25 7.08-8.36 5.02-7.7-13.49c0.62-0.12 1.24-0.18 1.86-0.18m0-2c-1.62 0-3.27 0.34-4.82 1.01l9.94 17.43 12.64-7.59-11.59-8.86c-0.03-0.02-0.06-0.05-0.1-0.07-1.7-1.28-3.85-1.92-6.07-1.92z" fill="#424242"/></g><linearGradient id="a" x1="61.936" x2="67.061" y1="35.192" y2="47.317" gradientUnits="userSpaceOnUse"><stop stop-color="#eee" offset=".0057064"/><stop stop-color="#BDBDBD" offset="1"/></linearGradient><path d="m98.2 20.01c4.42-1.59 18.26 1.03 19.71 4.49 1.79 4.28-6.24 9.95-13.5 11.86 0 0-52.91 16.31-64.95 18.14s-22.09 1.79-27.49 2.07c-1.01 0.05-1.91-0.63-2.13-1.62l-0.05-0.22c-0.23-1.02 0.32-2.05 1.29-2.42 10.59-3.96 67.75-25.33 87.12-32.3z" fill="url(#a)"/><path d="m101.09 22.95 1.93 2.37c0.59 0.73 1.58 1.01 2.46 0.7l10-3.59c0.19-0.08-8.81-3.67-11.92-2.22l-2.04 1.08c-0.67 0.26-0.89 1.1-0.43 1.66z" fill="#4FC3F7"/><rect x="4" y="88" width="120" height="8" fill="#BDBDBD"/><rect x="4" y="116" width="120" height="8" fill="#BDBDBD"/><g opacity=".2"><path d="m101.94 21.53c6.17 0 13.42 2.37 14.12 3.73 0.07 0.16 0.26 0.63-0.2 1.58-1.39 2.81-6.75 6.21-11.97 7.58-0.03 0.01-0.05 0.01-0.08 0.02-0.53 0.16-52.9 16.29-64.66 18.08-9.41 1.43-17.76 1.71-23.29 1.9-1.53 0.05-2.86 0.1-4.01 0.16-0.03 0-0.06-0.02-0.08-0.07l-0.05-0.22c-0.01-0.04 0.01-0.08 0.05-0.1 11.16-4.18 67.81-25.36 87.11-32.3 0.37-0.13 1.27-0.36 3.06-0.36m0-2c-1.52 0-2.83 0.15-3.74 0.48-19.37 6.97-76.53 28.34-87.13 32.31-0.98 0.37-1.53 1.4-1.29 2.42l0.05 0.22c0.22 0.95 1.06 1.62 2.02 1.62h0.11c5.4-0.28 15.45-0.24 27.49-2.07s64.95-18.14 64.95-18.14c7.27-1.91 15.29-7.58 13.5-11.86-1.14-2.76-10.1-4.98-15.96-4.98z" fill="#424242"/></g><path d="m36.33 67.64c1.86 0.2 4.02-0.77 5.77-2.22l24.91-21.67c0.28-0.42-1.39-1.14-2.51-0.83l-11.78 2.97c-0.36 0.1-0.59 0.25-0.66 0.43l-15.97 17.98c-0.62 0.73-2.87 3.01 0.24 3.34z" fill="#039BE5"/><path d="m9.56 60.6c0.69 0.17 2.25 0.27 3.78-0.78l13.68-9.77c0.12-0.15-0.04-0.37-0.22-0.3l-10.65 3.91c-0.04 0.02-0.08 0.04-0.1 0.08l-6.66 5.35c-1.08 0.81-0.5 1.35 0.17 1.51z" fill="#039BE5"/><g opacity=".2"><path d="m61.75 45.68-20.93 18.2c-1.05 0.87-2.19 1.47-3.19 1.69l15.82-17.81 8.3-2.08m3.35-2.83c-0.21 0-0.41 0.02-0.6 0.07l-11.78 2.97c-0.36 0.1-0.59 0.25-0.66 0.43l-15.97 17.98c-0.62 0.73-2.87 3.01 0.24 3.35 0.16 0.02 0.33 0.03 0.5 0.03 1.74 0 3.67-0.92 5.27-2.25l24.91-21.67c0.23-0.36-0.88-0.91-1.91-0.91z" fill="#424242"/></g><g opacity=".2"><path d="m21.51 52.75-8.74 6.25c-0.85 0.59-1.69 0.71-2.25 0.71-0.1 0-0.2 0-0.29-0.01l6.42-5.16 4.86-1.79m5.35-3.01c-0.02 0-0.05 0-0.07 0.01l-10.65 3.91c-0.04 0.02-0.08 0.04-0.1 0.08l-6.66 5.35c-1.08 0.8-0.5 1.35 0.17 1.51 0.23 0.06 0.56 0.11 0.96 0.11 0.78 0 1.81-0.19 2.82-0.89l13.68-9.77c0.11-0.13 0-0.31-0.15-0.31z" fill="#424242"/></g><line x1="39.32" x2="39.32" y1="49" y2="49" fill="none" stroke="#757575" stroke-linecap="round" stroke-linejoin="round" stroke-width="3"/><path d="m46.18 46.56c-0.28-0.78 0.13-1.64 0.91-1.92s1.64 0.13 1.92 0.91c0.27 0.78-0.13 1.64-0.91 1.92-0.17 0.06-0.34 0.08-0.51 0.08-0.62 0-1.19-0.38-1.41-0.99zm8.27-2.95c-0.27-0.78 0.13-1.64 0.91-1.92 0.79-0.27 1.64 0.13 1.92 0.91 0.28 0.79-0.13 1.64-0.91 1.92-0.17 0.06-0.34 0.09-0.5 0.09-0.62 0-1.2-0.39-1.42-1zm8.28-2.95c-0.28-0.78 0.13-1.64 0.91-1.91 0.78-0.28 1.64 0.13 1.92 0.91 0.27 0.78-0.13 1.64-0.91 1.91-0.17 0.06-0.34 0.09-0.51 0.09-0.61 0-1.19-0.38-1.41-1zm8.28-2.94c-0.28-0.78 0.13-1.64 0.91-1.92s1.63 0.13 1.91 0.91-0.13 1.64-0.91 1.92c-0.16 0.06-0.33 0.08-0.5 0.08-0.62 0-1.19-0.38-1.41-0.99zm8.27-2.95c-0.28-0.78 0.13-1.64 0.91-1.92 0.78-0.27 1.64 0.13 1.92 0.91 0.28 0.79-0.13 1.64-0.91 1.92-0.17 0.06-0.34 0.09-0.51 0.09-0.61 0-1.19-0.39-1.41-1zm8.28-2.95c-0.28-0.78 0.13-1.63 0.91-1.91s1.64 0.13 1.92 0.91c0.27 0.78-0.13 1.64-0.91 1.91-0.17 0.06-0.34 0.09-0.51 0.09-0.62 0-1.19-0.38-1.41-1z" fill="#757575"/><line x1="97.25" x2="97.25" y1="28.38" y2="28.38" fill="none" stroke="#757575" stroke-linecap="round" stroke-linejoin="round" stroke-width="3"/><g opacity=".2"><path d="m121 91v30h-114v-30h114m3-3h-120v36h120v-36z" fill="#424242"/></g></svg>

<svg width="128" height="128" style="enable-background:new 0 0 128 128;" xmlns="http://www.w3.org/2000/svg" xmlns:xlink="http://www.w3.org/1999/xlink">
  <rect height="20" style="fill:#616161;" width="119.98" x="4.02" y="96"/>
  <g>
    <rect height="4.22" style="fill:#E0E0E0;" width="11.82" x="10.35" y="103.89"/>
    <rect height="4.22" style="fill:#E0E0E0;" width="11.82" x="34.17" y="103.89"/>
    <rect height="4.22" style="fill:#E0E0E0;" width="11.82" x="57.99" y="103.89"/>
    <rect height="4.22" style="fill:#E0E0E0;" width="11.82" x="81.81" y="103.89"/>
    <rect height="4.22" style="fill:#E0E0E0;" width="11.82" x="105.63" y="103.89"/>
  </g>
  <g>
    <path d="M60.16,54.03c-0.33-1.05-0.9-1.72-1.7-2.18c-0.81-0.46-2.05-0.53-2.94-0.08l-3.92,2 c-0.32,0.16-0.57,0.37-0.77,0.62l-2.6,1.4c-0.88,0.47-1.22,1.63-0.89,2.66c0.33,1.03,1.29,1.77,2.27,1.64l2.92-0.37 c0.09-0.01,0.15-0.04,0.23-0.06c0.21,0.03,0.43,0.04,0.67,0.01l4.31-0.57c1.18-0.16,1.97-0.51,2.34-1.46 C60.46,56.7,60.57,55.36,60.16,54.03z" style="fill:#BDBDBD;"/>
    <ellipse cx="57.7" cy="54.95" rx="1.85" ry="3.01" style="fill:#424242;" transform="matrix(0.964 -0.266 0.266 0.964 -12.5373 17.3289)"/>
  </g>
  <ellipse cx="97.52" cy="39.68" rx="2.46" ry="2.42" style="fill:#757575;" transform="matrix(8.609493e-03 -1 1 8.609493e-03 56.9947 136.8545)"/>
  <path d="M15.81,54.1l12.64-7.59l-11.59-8.86c-0.03-0.02-0.06-0.05-0.1-0.07c-2.93-2.2-7.22-2.49-10.89-0.9h0 L15.81,54.1z" style="fill:#039BE5;"/>
  <g style="opacity:0.2;">
    <path d="M10.7,37.66c1.85,0,3.58,0.53,4.87,1.51l0.08,0.06l9.25,7.08l-8.36,5.02L8.84,37.84 C9.46,37.72,10.08,37.66,10.7,37.66 M10.7,35.66c-1.62,0-3.27,0.34-4.82,1.01l9.94,17.43l12.64-7.59l-11.59-8.86 c-0.03-0.02-0.06-0.05-0.1-0.07C15.07,36.3,12.92,35.66,10.7,35.66L10.7,35.66z" style="fill:#424242;"/>
  </g>
  <linearGradient id="SVGID_1_" gradientUnits="userSpaceOnUse" x1="61.9362" x2="67.0612" y1="35.1919" y2="47.3169">
    <stop offset="5.706419e-03" style="stop-color:#EEEEEE"/>
    <stop offset="1" style="stop-color:#BDBDBD"/>
  </linearGradient>
  <path d="M98.2,20.01c4.42-1.59,18.26,1.03,19.71,4.49c1.79,4.28-6.24,9.95-13.5,11.86 c0,0-52.91,16.31-64.95,18.14s-22.09,1.79-27.49,2.07c-1.01,0.05-1.91-0.63-2.13-1.62l-0.05-0.22c-0.23-1.02,0.32-2.05,1.29-2.42 C21.67,48.35,78.83,26.98,98.2,20.01z" style="fill:url(#SVGID_1_);"/>
  <path d="M101.09,22.95l1.93,2.37c0.59,0.73,1.58,1.01,2.46,0.7l10-3.59c0.19-0.08-8.81-3.67-11.92-2.22 l-2.04,1.08C100.85,21.55,100.63,22.39,101.09,22.95z" style="fill:#4FC3F7;"/>
  <rect height="8" style="fill:#BDBDBD;" width="120" x="4" y="88"/>
  <rect height="8" style="fill:#BDBDBD;" width="120" x="4" y="116"/>
  <g style="opacity:0.2;">
    <path d="M101.94,21.53c6.17,0,13.42,2.37,14.12,3.73c0.07,0.16,0.26,0.63-0.2,1.58 c-1.39,2.81-6.75,6.21-11.97,7.58c-0.03,0.01-0.05,0.01-0.08,0.02c-0.53,0.16-52.9,16.29-64.66,18.08 c-9.41,1.43-17.76,1.71-23.29,1.9c-1.53,0.05-2.86,0.1-4.01,0.16c-0.03,0-0.06-0.02-0.08-0.07l-0.05-0.22 c-0.01-0.04,0.01-0.08,0.05-0.1c11.16-4.18,67.81-25.36,87.11-32.3C99.25,21.76,100.15,21.53,101.94,21.53 M101.94,19.53 c-1.52,0-2.83,0.15-3.74,0.48c-19.37,6.97-76.53,28.34-87.13,32.31c-0.98,0.37-1.53,1.4-1.29,2.42l0.05,0.22 c0.22,0.95,1.06,1.62,2.02,1.62c0.04,0,0.07,0,0.11,0c5.4-0.28,15.45-0.24,27.49-2.07c12.04-1.83,64.95-18.14,64.95-18.14 c7.27-1.91,15.29-7.58,13.5-11.86C116.76,21.75,107.8,19.53,101.94,19.53L101.94,19.53z" style="fill:#424242;"/>
  </g>
  <path d="M36.33,67.64c1.86,0.2,4.02-0.77,5.77-2.22l24.91-21.67c0.28-0.42-1.39-1.14-2.51-0.83l-11.78,2.97 c-0.36,0.1-0.59,0.25-0.66,0.43L36.09,64.3C35.47,65.03,33.22,67.31,36.33,67.64z" style="fill:#039BE5;"/>
  <path d="M9.56,60.6c0.69,0.17,2.25,0.27,3.78-0.78l13.68-9.77c0.12-0.15-0.04-0.37-0.22-0.3l-10.65,3.91 c-0.04,0.02-0.08,0.04-0.1,0.08l-6.66,5.35C8.31,59.9,8.89,60.44,9.56,60.6z" style="fill:#039BE5;"/>
  <g style="opacity:0.2;">
    <path d="M61.75,45.68L40.82,63.88c-1.05,0.87-2.19,1.47-3.19,1.69l15.82-17.81L61.75,45.68 M65.1,42.85 c-0.21,0-0.41,0.02-0.6,0.07l-11.78,2.97c-0.36,0.1-0.59,0.25-0.66,0.43L36.09,64.3c-0.62,0.73-2.87,3.01,0.24,3.35 c0.16,0.02,0.33,0.03,0.5,0.03c1.74,0,3.67-0.92,5.27-2.25l24.91-21.67C67.24,43.4,66.13,42.85,65.1,42.85L65.1,42.85z" style="fill:#424242;"/>
  </g>
  <g style="opacity:0.2;">
    <path d="M21.51,52.75L12.77,59c-0.85,0.59-1.69,0.71-2.25,0.71c-0.1,0-0.2,0-0.29-0.01l6.42-5.16 L21.51,52.75 M26.86,49.74c-0.02,0-0.05,0-0.07,0.01l-10.65,3.91c-0.04,0.02-0.08,0.04-0.1,0.08l-6.66,5.35 c-1.08,0.8-0.5,1.35,0.17,1.51c0.23,0.06,0.56,0.11,0.96,0.11c0.78,0,1.81-0.19,2.82-0.89l13.68-9.77 C27.12,49.92,27.01,49.74,26.86,49.74L26.86,49.74z" style="fill:#424242;"/>
  </g>
  <g>
    <line style="fill:none;stroke:#757575;stroke-width:3;stroke-linecap:round;stroke-linejoin:round;" x1="39.32" x2="39.32" y1="49" y2="49"/>
    <path d="M46.18,46.56c-0.28-0.78,0.13-1.64,0.91-1.92l0,0c0.78-0.28,1.64,0.13,1.92,0.91l0,0 c0.27,0.78-0.13,1.64-0.91,1.92l0,0c-0.17,0.06-0.34,0.08-0.51,0.08l0,0C46.97,47.55,46.4,47.17,46.18,46.56z M54.45,43.61 c-0.27-0.78,0.13-1.64,0.91-1.92l0,0c0.79-0.27,1.64,0.13,1.92,0.91l0,0c0.28,0.79-0.13,1.64-0.91,1.92l0,0 c-0.17,0.06-0.34,0.09-0.5,0.09l0,0C55.25,44.61,54.67,44.22,54.45,43.61z M62.73,40.66c-0.28-0.78,0.13-1.64,0.91-1.91l0,0 c0.78-0.28,1.64,0.13,1.92,0.91l0,0c0.27,0.78-0.13,1.64-0.91,1.91l0,0c-0.17,0.06-0.34,0.09-0.51,0.09l0,0 C63.53,41.66,62.95,41.28,62.73,40.66z M71.01,37.72c-0.28-0.78,0.13-1.64,0.91-1.92l0,0c0.78-0.28,1.63,0.13,1.91,0.91l0,0 c0.28,0.78-0.13,1.64-0.91,1.92l0,0c-0.16,0.06-0.33,0.08-0.5,0.08l0,0C71.8,38.71,71.23,38.33,71.01,37.72z M79.28,34.77 c-0.28-0.78,0.13-1.64,0.91-1.92l0,0c0.78-0.27,1.64,0.13,1.92,0.91l0,0c0.28,0.79-0.13,1.64-0.91,1.92l0,0 c-0.17,0.06-0.34,0.09-0.51,0.09l0,0C80.08,35.77,79.5,35.38,79.28,34.77z M87.56,31.82c-0.28-0.78,0.13-1.63,0.91-1.91l0,0 c0.78-0.28,1.64,0.13,1.92,0.91l0,0c0.27,0.78-0.13,1.64-0.91,1.91l0,0c-0.17,0.06-0.34,0.09-0.51,0.09l0,0 C88.35,32.82,87.78,32.44,87.56,31.82z" style="fill:#757575;"/>
    <line style="fill:none;stroke:#757575;stroke-width:3;stroke-linecap:round;stroke-linejoin:round;" x1="97.25" x2="97.25" y1="28.38" y2="28.38"/>
  </g>
  <g style="opacity:0.2;">
    <path d="M121,91v30H7V91H121 M124,88H4v36h120V88L124,88z" style="fill:#424242;"/>
  </g>
</svg>
